X: 4569
T: Both Sides Of A Coin
R: jig
M: 6/8
K: Aminor
B|:cAE EAc|B^GE E^GB|cAE EAc|dfa edB|
cAE EAc|B^GE dcB|cea dfa|edB BAB:|
K: Amaj
cAE edc|cEG Bcd|cea dfa|ged Bcd|
cAE edc|cEG efg|aec dcB|AGB BAB:|
cAE EAc|BGE EGB|( A3 A3)||

